X:1
T:Októbernek, októbernek ...
M:4/4
L:1/8
Q:100
K:Dm
 dccc dccc | {c}d c3 (c4~B/2~A/2) |
w: Ok-tó-ber-nek, ok-tó-ber-nek el-se-jén
 AAAA ccGG | g F3 (F3~E/2~D/2~C/2) z |
w: Nem süt a nap Csík-karc-fal-va me-ze-jén.
|: CDDD DCCC | F G3 ({G}c4~B) |
w: El-bú-csú-zom a ma-dár-t s~az ág-tól,
 AAFF GGFC | (3:2:2D2D4 D2 z2 :||
w: Az-u-tán a csík-karc-fal-vi lá-nyok-tól.
